X: 3
T: Sporting Paddy
R: reel
M: 4/4
L: 1/8
K: Ador
EAAF GABG|EAAG E2DG|EAAF GABd|1 egdB BAAG:|2 egdB BAAa||geeg dBBa|gefg a2ba|geeg dBBf|~g3e dfef|geeg dBBa|gefg a2ga|bgaf gfed|egdB cBAG||


Tune 430	Setting 13294

